src/_icons/servidor.svg

<svg xmlns="http://www.w3.org/2000/svg" viewBox="0 0 50.46 50.46">
  <title>Iconos</title>
  <g>
    <path d="M41.86,30.55H8.6a1.92,1.92,0,0,0-1.92,1.92v3.24A1.92,1.92,0,0,0,8.6,37.63H41.86a1.92,1.92,0,0,0,1.92-1.92V32.47A1.92,1.92,0,0,0,41.86,30.55ZM19.73,35.11H9.58V33.37H19.73v1.74ZM39.52,35.6a1.36,1.36,0,1,1,1.36-1.36A1.36,1.36,0,0,1,39.52,35.6Z" fill="#00b5e4"/>
    <path d="M41.86,21.69H8.6a1.92,1.92,0,0,0-1.92,1.92v3.24A1.92,1.92,0,0,0,8.6,28.77H41.86a1.92,1.92,0,0,0,1.92-1.92V23.61A1.92,1.92,0,0,0,41.86,21.69ZM19.73,26.25H9.58V24.51H19.73v1.74Zm19.79,0.49a1.36,1.36,0,1,1,1.36-1.36A1.36,1.36,0,0,1,39.52,26.74Z" fill="#00b5e4"/>
    <path d="M41.86,12.83H8.6a1.92,1.92,0,0,0-1.92,1.92V18A1.92,1.92,0,0,0,8.6,19.91H41.86A1.92,1.92,0,0,0,43.77,18V14.75A1.92,1.92,0,0,0,41.86,12.83ZM19.73,17.39H9.58V15.65H19.73v1.74Zm19.79,0.49a1.36,1.36,0,1,1,1.36-1.36A1.36,1.36,0,0,1,39.52,17.89Z" fill="#00b5e4"/>
  </g>
</svg>

<?xml version="1.0" encoding="utf-8"?>
<!-- Generator: Adobe Illustrator 18.0.0, SVG Export Plug-In . SVG Version: 6.00 Build 0)  -->
<!DOCTYPE svg PUBLIC "-//W3C//DTD SVG 1.1//EN" "http://www.w3.org/Graphics/SVG/1.1/DTD/svg11.dtd">
<svg version="1.1" id="Layer_1" xmlns="http://www.w3.org/2000/svg" xmlns:xlink="http://www.w3.org/1999/xlink" x="0px" y="0px"
	 viewBox="0 0 50.5 50.5" style="enable-background:new 0 0 50.5 50.5;" xml:space="preserve">
<style type="text/css">
	.st0{fill:#65B4E1;}
</style>
<g>
	<g>
		<path class="st0" d="M41.9,30.6H8.6c-1.1,0-1.9,0.9-1.9,1.9v3.2c0,1.1,0.9,1.9,1.9,1.9h33.3c1.1,0,1.9-0.9,1.9-1.9v-3.2
			C43.8,31.4,42.9,30.6,41.9,30.6z M19.7,35.1H9.6v-1.7h10.2V35.1z M39.5,35.6c-0.8,0-1.4-0.6-1.4-1.4c0-0.8,0.6-1.4,1.4-1.4
			c0.8,0,1.4,0.6,1.4,1.4C40.9,35,40.3,35.6,39.5,35.6z"/>
		<path class="st0" d="M41.9,21.7H8.6c-1.1,0-1.9,0.9-1.9,1.9v3.2c0,1.1,0.9,1.9,1.9,1.9h33.3c1.1,0,1.9-0.9,1.9-1.9v-3.2
			C43.8,22.6,42.9,21.7,41.9,21.7z M19.7,26.3H9.6v-1.7h10.2V26.3z M39.5,26.7c-0.8,0-1.4-0.6-1.4-1.4c0-0.8,0.6-1.4,1.4-1.4
			c0.8,0,1.4,0.6,1.4,1.4C40.9,26.1,40.3,26.7,39.5,26.7z"/>
		<path class="st0" d="M41.9,12.8H8.6c-1.1,0-1.9,0.9-1.9,1.9V18c0,1.1,0.9,1.9,1.9,1.9h33.3c1.1,0,1.9-0.9,1.9-1.9v-3.2
			C43.8,13.7,42.9,12.8,41.9,12.8z M19.7,17.4H9.6v-1.7h10.2V17.4z M39.5,17.9c-0.8,0-1.4-0.6-1.4-1.4c0-0.8,0.6-1.4,1.4-1.4
			c0.8,0,1.4,0.6,1.4,1.4C40.9,17.3,40.3,17.9,39.5,17.9z"/>
	</g>
</g>
</svg>
